docs/.gitbook/assets/icon-computer-chip-16@dark.svg

<svg width="32" height="32" viewBox="0 0 16 16" fill="none" xmlns="http://www.w3.org/2000/svg">
<rect x="0" y="0" width="16" height="16" fill="#181c1f"/>
<path fill-rule="evenodd" clip-rule="evenodd" d="M5.75 1C6.16421 1 6.5 1.33579 6.5 1.75V3H9.5V1.75C9.5 1.33579 9.83579 1 10.25 1C10.6642 1 11 1.33579 11 1.75V3H11.25C12.2165 3 13 3.7835 13 4.75V5H14.25C14.6642 5 15 5.33579 15 5.75C15 6.16421 14.6642 6.5 14.25 6.5H13V9.5H14.25C14.6642 9.5 15 9.83579 15 10.25C15 10.6642 14.6642 11 14.25 11H13V11.25C13 12.2165 12.2165 13 11.25 13H11V14.25C11 14.6642 10.6642 15 10.25 15C9.83579 15 9.5 14.6642 9.5 14.25V13H6.5V14.25C6.5 14.6642 6.16421 15 5.75 15C5.33579 15 5 14.6642 5 14.25V13H4.75C3.7835 13 3 12.2165 3 11.25V11H1.75C1.33579 11 1 10.6642 1 10.25C1 9.83579 1.33579 9.5 1.75 9.5H3V6.5H1.75C1.33579 6.5 1 6.16421 1 5.75C1 5.33579 1.33579 5 1.75 5H3V4.75C3 3.7835 3.7835 3 4.75 3H5V1.75C5 1.33579 5.33579 1 5.75 1ZM4.75 4.5C4.61193 4.5 4.5 4.61193 4.5 4.75V5.75V10.25V11.25C4.5 11.3881 4.61193 11.5 4.75 11.5H5.75H10.25H11.25C11.3881 11.5 11.5 11.3881 11.5 11.25V10.25V5.75V4.75C11.5 4.61193 11.3881 4.5 11.25 4.5H10.25H5.75H4.75Z" fill="#fff"/>
</svg>

<svg xmlns="http://www.w3.org/2000/svg" width="32" height="32" fill="none" viewBox="0 0 16 16"><path fill="#181c1f" d="M0 0h16v16H0z"/><path fill="#fff" fill-rule="evenodd" d="M5.75 1a.75.75 0 0 1 .75.75V3h3V1.75a.75.75 0 0 1 1.5 0V3h.25c.966 0 1.75.784 1.75 1.75V5h1.25a.75.75 0 0 1 0 1.5H13v3h1.25a.75.75 0 0 1 0 1.5H13v.25A1.75 1.75 0 0 1 11.25 13H11v1.25a.75.75 0 0 1-1.5 0V13h-3v1.25a.75.75 0 0 1-1.5 0V13h-.25A1.75 1.75 0 0 1 3 11.25V11H1.75a.75.75 0 0 1 0-1.5H3v-3H1.75a.75.75 0 0 1 0-1.5H3v-.25C3 3.784 3.784 3 4.75 3H5V1.75A.75.75 0 0 1 5.75 1m-1 3.5a.25.25 0 0 0-.25.25v6.5c0 .138.112.25.25.25h6.5a.25.25 0 0 0 .25-.25v-6.5a.25.25 0 0 0-.25-.25z" clip-rule="evenodd"/></svg>
